dist/img/russian_breakfast.svg

<svg width="154" height="153" viewBox="0 0 154 153" fill="none" xmlns="http://www.w3.org/2000/svg">
<path d="M77.2099 2.12895e-05L0.709961 76.5L77.21 153L153.71 76.5L77.2099 2.12895e-05Z" fill="#E42313"/>
<path d="M40.5783 65.0718H42.0939C43.4544 65.0718 44.5948 64.3865 45.5102 63.021C46.4255 61.6554 46.8857 59.7797 46.8857 57.3888V56.2833C46.8857 53.5473 46.4456 51.5815 45.5602 50.376C44.6749 49.1705 43.5194 48.5703 42.0889 48.5703H36.8418V74.6055H40.5783V65.0718ZM40.5783 52.767H41.4886C42.6991 52.767 43.3043 53.9374 43.3043 56.2833V57.3237C43.3043 59.6897 42.6991 60.8701 41.4886 60.8701H40.5783V52.767Z" fill="white"/>
<path d="M51.963 68.8427C51.963 69.513 51.8429 70.0282 51.6078 70.3883C51.3728 70.7484 51.1026 70.9235 50.8025 70.9235C50.4674 70.9235 50.1673 70.7384 49.9072 70.3683C49.6471 69.9982 49.517 69.4129 49.517 68.6126V66.4668H46.6909V68.6126C46.6909 70.5234 47.0461 72.059 47.7613 73.2194C48.4766 74.3799 49.6321 74.9601 51.2327 74.9601C53.7887 74.9601 55.3793 72.7892 55.9996 68.4526L58.4105 51.4959C58.9357 48.4347 59.8461 44.3131 61.2666 41.2819C63.8126 35.8448 67.1939 34.8644 69.7449 35.8898C72.9112 37.1653 71.8007 42.4074 68.0793 40.8367C68.0793 40.8367 68.4594 43.2977 71.2655 43.8279C74.2017 44.3781 77.4179 41.592 76.2625 37.0703C77.0378 37.1703 77.9281 37.1803 78.8585 36.9652C78.8585 36.9652 77.683 31.378 69.3048 31.4281C67.6141 31.4381 66.1585 31.7882 64.913 32.3434C63.1073 33.0887 61.4317 34.4192 60.1912 36.425C60.1612 36.475 60.1312 36.5301 60.0962 36.5801C58.9307 38.3358 58.3505 40.0314 58.1354 40.7567C57.15 43.4178 56.5348 46.1338 56.1746 48.1046H56.1596L56.0696 48.7198C55.9095 49.6652 55.8145 50.3755 55.7695 50.7356L53.7787 64.0608L50.8625 48.5648H46.876L51.898 67.6022C51.948 67.7973 51.973 68.2075 51.973 68.8377L51.963 68.8427Z" fill="white"/>
<path d="M69.144 59.3375V55.3009C69.144 52.96 68.7488 51.1893 67.9585 49.9938C67.1682 48.7984 65.8977 48.2031 64.147 48.2031C62.4163 48.2031 61.1258 48.8334 60.2755 50.0889C59.4252 51.3493 59 53.085 59 55.2959V67.8608C59 70.0717 59.4252 71.8124 60.2755 73.0678C61.1258 74.3283 62.4163 74.9536 64.147 74.9536C67.5784 74.9536 69.294 72.5877 69.294 67.8558V63.8192H66.0127V67.8558C66.0127 69.0913 65.8927 69.9766 65.6476 70.5068C65.4025 71.0371 64.9773 71.3022 64.3721 71.3022C63.2767 71.3022 62.7315 70.1517 62.7315 67.8508V55.2859C62.7315 52.985 63.2767 51.8345 64.3721 51.8345C64.9773 51.8345 65.4025 52.0996 65.6476 52.6299C65.8927 53.1601 66.0127 54.0454 66.0127 55.2809V59.3175H69.139L69.144 59.3375Z" fill="white"/>
<path d="M75.1812 48.2075C73.4505 48.2075 72.16 48.8378 71.3097 50.0932C70.4593 51.3537 70.0342 53.0894 70.0342 55.3003V67.8652C70.0342 70.0761 70.4593 71.8167 71.3097 73.0722C72.16 74.3327 73.4505 74.958 75.1812 74.958C78.6125 74.958 80.3282 72.592 80.3282 67.8602V63.8236H77.0469V67.8602C77.0469 69.0957 76.9269 69.981 76.6818 70.5112C76.4367 71.0414 76.0115 71.3065 75.4063 71.3065C74.3108 71.3065 73.7656 70.1561 73.7656 67.8552V55.2903C73.7656 52.9894 74.3108 51.8389 75.4063 51.8389C76.0115 51.8389 76.4367 52.104 76.6818 52.6342C76.9269 53.1644 77.0469 54.0498 77.0469 55.2853V59.3219H80.1731V55.2853C80.1731 52.9444 79.778 51.1737 78.9877 49.9782C78.1974 48.7827 76.9269 48.1875 75.1762 48.1875L75.1812 48.2075Z" fill="white"/>
<path d="M84.8812 63.4047H85.8416C86.4118 63.4047 86.882 63.6598 87.2522 64.17C87.6223 64.6802 87.8074 65.4905 87.8074 66.5959V70.0473C87.8074 73.3236 89.0028 74.9592 91.3888 74.9592C92.0941 74.9592 92.8093 74.8092 93.5346 74.504V70.3074C93.2145 70.4825 92.9044 70.5675 92.5993 70.5675C91.894 70.5675 91.5388 69.7672 91.5388 68.1615V66.0157C91.5388 64.5401 91.2337 63.3947 90.6285 62.5844C90.0232 61.7691 89.273 61.3189 88.3826 61.2338C90.1833 60.8437 91.0837 59.4231 91.0837 56.9722C91.0837 56.7321 91.0687 56.3469 91.0336 55.8167C90.9986 55.2865 90.9836 54.9564 90.9836 54.8263C90.9836 53.3708 91.4188 52.6455 92.2941 52.6455C92.4792 52.6455 92.7393 52.6905 93.0744 52.7755V48.5789C92.0841 48.3388 91.3188 48.2188 90.7785 48.2188C89.7531 48.2188 88.9578 48.6139 88.3926 49.4092C87.8274 50.1995 87.5473 51.37 87.5473 52.9056C87.5473 53.2507 87.5823 53.8059 87.6473 54.5662C87.7123 55.3265 87.7474 55.8567 87.7474 56.1619C87.7474 58.2027 87.1071 59.2231 85.8316 59.2231H84.8712V48.5789H81.1348V74.6141H84.8712V63.4197L84.8812 63.4047Z" fill="white"/>
<path d="M97.5861 64.0255V48.5645H94.1548V74.6046H97.9913L101.623 58.8835V74.6046H105.054V48.5645H101.218L97.5861 64.0255Z" fill="white"/>
<path d="M111.515 47.4257C114.591 47.4257 116.132 46.4903 116.132 44.6246C116.132 43.9943 116.117 43.5492 116.082 43.2891H112.751C112.801 43.5041 112.826 43.9193 112.826 44.5245C112.826 45.2198 112.391 45.565 111.515 45.565C110.64 45.565 110.205 45.2198 110.205 44.5245C110.205 43.9193 110.23 43.5041 110.28 43.2891H106.948C106.913 43.5492 106.898 43.9943 106.898 44.6246C106.898 46.4903 108.439 47.4257 111.515 47.4257Z" fill="white"/>
<path d="M114.117 58.8854V74.6016H117.548V48.5664H113.711L109.5 64.0275V48.5664H106.068V74.6016H109.905L114.117 58.8854Z" fill="white"/>
<path d="M44.2197 88.5451C44.975 88.285 45.6253 87.6448 46.1655 86.6244C46.7057 85.604 46.9758 84.1934 46.9758 82.3927V82.0026C46.9758 77.861 45.3152 75.7852 41.9989 75.7852C38.6676 75.7852 36.9969 78.2061 36.9969 83.043V84.6686H40.2182V83.008C40.2182 82.0326 40.3232 81.2523 40.5283 80.6671C40.7334 80.0818 41.1535 79.7867 41.7938 79.7867C42.7892 79.7867 43.2894 80.7871 43.2894 82.7829V83.043C43.2894 85.669 42.7042 86.9795 41.5387 86.9795H39.733V90.5259H41.7938C42.8942 90.5259 43.4444 91.5463 43.4444 93.5871V95.3128C43.4444 96.2482 43.3094 97.0035 43.0443 97.5887C42.7792 98.1739 42.359 98.469 41.7938 98.469C40.7284 98.469 40.1982 97.3936 40.1932 95.2478V93.297H36.7368V95.2178C36.7368 100.055 38.4225 102.476 41.7888 102.476C45.4502 102.476 47.2809 99.9596 47.2759 94.9226V94.5625C47.2759 92.7418 46.9758 91.3212 46.3756 90.3008C45.7754 89.2804 45.0501 88.6952 44.2097 88.5451H44.2197Z" fill="white"/>
<path d="M50.8274 76.0801L47.4761 102.115H50.6723L51.3926 95.8978H54.974L55.7493 102.115H59.5658L56.2395 76.0801H50.8274ZM51.8828 91.7012L53.2233 79.2663L54.5138 91.7012H51.8828Z" fill="white"/>
<path d="M69.5046 100.114C70.2348 98.909 70.6 97.4534 70.6 95.7378V94.8274C70.6 93.0067 70.2399 91.5511 69.5196 90.4657C68.7993 89.3803 67.999 88.775 67.1236 88.645C67.9289 88.3849 68.6492 87.7647 69.2745 86.7893C69.8997 85.8139 70.2148 84.4784 70.2148 82.7877V82.2975C70.2148 80.5168 69.8647 79.0713 69.1594 77.9508C68.4542 76.8354 67.4988 76.2301 66.2983 76.1451C65.6781 76.1001 65.2079 76.0801 64.8828 76.0801H60.1909V102.115H64.1875C65.2879 102.115 66.1132 102.095 66.6635 102.05C67.8339 101.965 68.7793 101.32 69.5096 100.114H69.5046ZM64.0024 80.2767H64.6477C65.3329 80.2767 65.8481 80.5118 66.1933 80.977C66.5384 81.4422 66.7085 82.2075 66.7085 83.2729V83.8581C66.7085 84.7285 66.5384 85.4187 66.2083 85.9389C65.8731 86.4591 65.498 86.7192 65.0878 86.7192H64.0074V80.2767H64.0024ZM65.0328 97.9186H64.0024V90.9209H65.0828C65.6481 90.9209 66.1282 91.161 66.5134 91.6362C66.8985 92.1114 67.0936 92.7966 67.0936 93.687V94.9225C67.0936 95.9879 66.9286 96.7482 66.5934 97.2184C66.2583 97.6835 65.7381 97.9186 65.0328 97.9186Z" fill="white"/>
<path d="M78.5582 102.116L78.5532 80.2778H82.3447V76.0762H70.9502V80.2778H74.7417V102.116H78.5582Z" fill="white"/>
<path d="M96.0198 76.0762L92.6685 102.111H95.8647L96.585 95.8939H100.166L100.942 102.111H104.758L101.432 76.0762H96.0198ZM97.0752 91.6973L98.4157 79.2624L99.7062 91.6973H97.0752Z" fill="white"/>
<path d="M117.083 98.0734C116.363 98.0734 116.003 97.273 116.003 95.6674V93.5216C116.003 92.046 115.693 90.9005 115.073 90.0902C114.452 89.2749 113.687 88.8247 112.777 88.7397C114.618 88.3495 115.533 86.929 115.533 84.478C115.533 84.2379 115.513 83.8528 115.483 83.3226C115.448 82.7924 115.433 82.4622 115.433 82.3322C115.433 80.8766 115.878 80.1513 116.773 80.1513C116.963 80.1513 117.229 80.1964 117.574 80.2814V76.0848C116.558 75.8447 115.778 75.7246 115.228 75.7246C114.177 75.7246 113.367 76.1198 112.792 76.9151C112.217 77.7054 111.926 78.8758 111.926 80.4114C111.926 80.7566 111.961 81.3118 112.032 82.0721C112.102 82.8324 112.137 83.3626 112.137 83.6677C112.137 85.7085 111.481 86.7289 110.176 86.7289H109.195V76.0848H105.379V102.12H109.195V90.9256H110.176C110.761 90.9256 111.241 91.1807 111.621 91.6909C112.002 92.2011 112.187 93.0064 112.187 94.1168V97.5682C112.187 100.844 113.407 102.48 115.848 102.48C116.568 102.48 117.299 102.33 118.039 102.025V97.8283C117.714 98.0033 117.394 98.0884 117.083 98.0884V98.0734Z" fill="white"/>
<path d="M93.284 83.7892C93.284 81.0531 92.8338 79.0874 91.9285 77.8819C91.0281 76.6764 89.8426 76.0762 88.3821 76.0762H83.02V94.2233C83.02 94.2233 83.02 94.3283 83.02 94.5184V95.7539C83 98.4049 82.8199 103.997 81.7895 108.514C80.3839 114.656 76.3123 117.047 73.1161 116.517C69.9198 115.992 69.7448 111.955 72.0607 111.285C74.0865 110.7 74.7617 112.585 74.7617 112.585C74.7617 112.585 76.8376 109.384 74.4466 107.248C72.3358 105.368 69.1095 105.983 67.4939 108.514C65.8783 111.04 67.4239 113.606 67.4239 113.606C65.8182 112.62 64.3677 113.046 64.3677 113.046C64.5077 117.787 67.9141 121.539 74.0215 121.189C80.1288 120.839 84.0904 114.696 85.5109 109.239C86.7764 104.387 86.8265 92.5776 86.8265 92.5776H88.3721C89.7626 92.5776 90.9281 91.8924 91.8634 90.5268C92.7988 89.1613 93.269 87.2856 93.269 84.8946V83.7892H93.284ZM89.6226 84.8296C89.6226 87.1955 89.0023 88.376 87.7668 88.376H86.8365V80.2728H87.7668C89.0023 80.2728 89.6226 81.4433 89.6226 83.7892V84.8296Z" fill="white"/>
</svg>

<svg width="154" height="153" viewBox="0 0 154 153" fill="none" xmlns="http://www.w3.org/2000/svg"><path d="M77.21 0L.71 76.5l76.5 76.5 76.5-76.5L77.21 0z" fill="#E42313"/><path d="M40.578 65.072h1.516c1.36 0 2.5-.686 3.416-2.051.916-1.366 1.376-3.241 1.376-5.632v-1.106c0-2.736-.44-4.702-1.326-5.907-.885-1.206-2.04-1.806-3.471-1.806h-5.247v26.036h3.736v-9.534zm0-12.305h.91c1.211 0 1.816 1.17 1.816 3.516v1.04c0 2.367-.605 3.547-1.815 3.547h-.91v-8.103z" fill="#fff"/><path d="M51.963 68.843c0 .67-.12 1.185-.355 1.545-.235.36-.505.535-.805.535-.336 0-.636-.185-.896-.555-.26-.37-.39-.955-.39-1.755v-2.146h-2.826v2.146c0 1.91.355 3.446 1.07 4.606.716 1.16 1.871 1.741 3.472 1.741 2.556 0 4.146-2.17 4.767-6.507l2.41-16.957c.526-3.061 1.436-7.183 2.857-10.214 2.546-5.437 5.927-6.418 8.478-5.392 3.166 1.275 2.056 6.517-1.666 4.947 0 0 .38 2.46 3.187 2.99 2.936.551 6.152-2.235 4.996-6.757.776.1 1.666.11 2.597-.105 0 0-1.176-5.587-9.554-5.537-1.69.01-3.147.36-4.392.915-1.806.746-3.481 2.076-4.722 4.082-.03.05-.06.105-.095.155a16.093 16.093 0 00-1.96 4.177c-.986 2.66-1.601 5.377-1.961 7.348h-.015l-.09.615c-.16.945-.255 1.656-.3 2.016L53.779 64.06l-2.917-15.496h-3.986l5.022 19.037c.05.195.075.605.075 1.236l-.01.005z" fill="#fff"/><path d="M69.144 59.337v-4.036c0-2.341-.395-4.112-1.186-5.307-.79-1.196-2.06-1.79-3.811-1.79-1.73 0-3.021.63-3.872 1.885-.85 1.26-1.275 2.996-1.275 5.207V67.86c0 2.21.425 3.951 1.276 5.207.85 1.26 2.14 1.886 3.871 1.886 3.431 0 5.147-2.366 5.147-7.098v-4.037h-3.281v4.037c0 1.235-.12 2.12-.365 2.65-.245.531-.67.796-1.276.796-1.095 0-1.64-1.15-1.64-3.451V55.286c0-2.301.545-3.452 1.64-3.452.605 0 1.03.266 1.276.796.245.53.365 1.415.365 2.65v4.038h3.126l.005.02zm6.037-11.129c-1.73 0-3.021.63-3.871 1.885-.85 1.26-1.276 2.996-1.276 5.207v12.565c0 2.211.425 3.952 1.276 5.207.85 1.26 2.14 1.886 3.871 1.886 3.431 0 5.147-2.366 5.147-7.098v-4.036h-3.281v4.036c0 1.236-.12 2.121-.365 2.651-.245.53-.67.796-1.276.796-1.095 0-1.64-1.15-1.64-3.452V55.29c0-2.3.545-3.451 1.64-3.451.605 0 1.03.265 1.276.795.245.53.365 1.416.365 2.651v4.037h3.126v-4.037c0-2.34-.395-4.111-1.185-5.307-.79-1.195-2.061-1.79-3.812-1.79l.005.02zm9.7 15.197h.96c.57 0 1.041.255 1.411.765.37.51.555 1.32.555 2.426v3.451c0 3.277 1.196 4.912 3.582 4.912.705 0 1.42-.15 2.146-.455v-4.197c-.32.175-.63.26-.936.26-.705 0-1.06-.8-1.06-2.405v-2.146c0-1.476-.305-2.621-.91-3.432-.606-.815-1.356-1.265-2.246-1.35 1.8-.39 2.7-1.81 2.7-4.262 0-.24-.014-.625-.05-1.155-.034-.53-.05-.86-.05-.99 0-1.456.436-2.181 1.311-2.181.185 0 .445.044.78.13v-4.197c-.99-.24-1.755-.36-2.296-.36-1.025 0-1.82.395-2.385 1.19-.566.79-.846 1.961-.846 3.497 0 .345.035.9.1 1.66.065.76.1 1.29.1 1.596 0 2.04-.64 3.061-1.915 3.061h-.96V48.58h-3.737v26.035h3.736V63.42l.01-.015zm12.705.62v-15.46h-3.431v26.04h3.836l3.632-15.722v15.722h3.431v-26.04h-3.836l-3.632 15.46zm13.929-16.599c3.076 0 4.617-.936 4.617-2.801 0-.63-.015-1.076-.05-1.336h-3.331c.05.215.075.63.075 1.236 0 .695-.435 1.04-1.311 1.04-.875 0-1.31-.345-1.31-1.04 0-.606.025-1.02.075-1.236h-3.332c-.035.26-.05.705-.05 1.336 0 1.865 1.541 2.8 4.617 2.8zm2.602 11.459v15.717h3.431V48.566h-3.837L109.5 64.028V48.566h-3.432v26.036h3.837l4.212-15.717zM44.22 88.545c.755-.26 1.405-.9 1.946-1.92.54-1.021.81-2.432.81-4.232v-.39c0-4.142-1.66-6.218-4.977-6.218-3.331 0-5.002 2.421-5.002 7.258v1.626h3.221v-1.661c0-.975.105-1.756.31-2.34.205-.586.626-.881 1.266-.881.995 0 1.495 1 1.495 2.996v.26c0 2.626-.585 3.936-1.75 3.936h-1.806v3.547h2.06c1.101 0 1.651 1.02 1.651 3.061v1.726c0 .935-.135 1.69-.4 2.276-.265.585-.685.88-1.25.88-1.066 0-1.596-1.075-1.6-3.221v-1.951h-3.457v1.92c0 4.838 1.685 7.259 5.052 7.259 3.661 0 5.492-2.516 5.487-7.553v-.36c0-1.821-.3-3.242-.9-4.262-.6-1.02-1.326-1.606-2.166-1.756h.01zm6.607-12.465l-3.35 26.035h3.195l.72-6.217h3.582l.775 6.217h3.817L56.239 76.08h-5.412zm1.056 15.621l1.34-12.435 1.29 12.435h-2.63zm17.622 8.413c.73-1.205 1.095-2.66 1.095-4.376v-.91c0-1.821-.36-3.277-1.08-4.362-.72-1.086-1.521-1.691-2.396-1.821.805-.26 1.525-.88 2.15-1.856.626-.975.94-2.31.94-4.001v-.49c0-1.781-.35-3.227-1.055-4.347-.705-1.116-1.66-1.72-2.86-1.806a20.794 20.794 0 00-1.416-.065H60.19v26.035h3.996c1.1 0 1.926-.02 2.477-.065 1.17-.085 2.115-.73 2.846-1.936h-.005zm-5.503-19.837h.646c.685 0 1.2.235 1.545.7.345.465.516 1.23.516 2.296v.585c0 .87-.17 1.56-.5 2.08-.336.521-.711.781-1.121.781h-1.08v-6.442h-.006zm1.03 17.642h-1.03V90.92h1.08c.566 0 1.046.24 1.431.715s.58 1.16.58 2.051v1.236c0 1.065-.164 1.825-.5 2.295-.335.465-.855.7-1.56.7zm13.526 4.197l-.005-21.838h3.792v-4.202H70.95v4.202h3.792v21.838h3.816zm17.462-26.04l-3.352 26.035h3.197l.72-6.217h3.581l.776 6.217h3.816l-3.326-26.035H96.02zm1.055 15.621l1.34-12.435 1.291 12.435h-2.63zm20.008 6.376c-.72 0-1.08-.8-1.08-2.406v-2.145c0-1.476-.31-2.622-.93-3.432-.621-.815-1.386-1.265-2.296-1.35 1.841-.39 2.756-1.811 2.756-4.262 0-.24-.02-.625-.05-1.155-.035-.53-.05-.86-.05-.99 0-1.456.445-2.182 1.34-2.182.19 0 .456.045.801.13v-4.196c-1.016-.24-1.796-.36-2.346-.36-1.051 0-1.861.395-2.436 1.19-.575.79-.866 1.96-.866 3.496 0 .346.035.9.106 1.661.07.76.105 1.29.105 1.596 0 2.04-.656 3.06-1.961 3.06h-.981V76.086h-3.816v26.035h3.816V90.926h.981c.585 0 1.065.255 1.445.765.381.51.566 1.315.566 2.426v3.451c0 3.276 1.22 4.912 3.661 4.912.72 0 1.451-.15 2.191-.455v-4.197c-.325.175-.645.26-.956.26v-.015z" fill="#fff"/><path d="M93.284 83.79c0-2.737-.45-4.703-1.356-5.908-.9-1.206-2.085-1.806-3.546-1.806H83.02v19.678c-.02 2.65-.2 8.243-1.23 12.76-1.406 6.142-5.478 8.533-8.674 8.003-3.196-.525-3.371-4.562-1.055-5.232 2.025-.585 2.7 1.3 2.7 1.3s2.077-3.201-.314-5.337c-2.111-1.88-5.338-1.265-6.953 1.266-1.616 2.526-.07 5.092-.07 5.092-1.606-.986-3.056-.56-3.056-.56.14 4.741 3.546 8.493 9.654 8.143 6.107-.35 10.068-6.493 11.489-11.95 1.265-4.852 1.316-16.661 1.316-16.661h1.545c1.39 0 2.556-.686 3.491-2.051.936-1.366 1.406-3.241 1.406-5.632v-1.106h.015zm-3.661 1.04c0 2.365-.62 3.546-1.856 3.546h-.93v-8.103h.93c1.235 0 1.856 1.17 1.856 3.516v1.04z" fill="#fff"/></svg>
